X:34
T:Legacy Jig, The
R:Jig
M:6/8
L:1/8
K:G
(GFG) (BAB)|(gfg) (gab)|(GFG) (BAB)|dBA AGF|(GFG) (BAB)|(gfg) (gab)|age
edB|1dBA AGF:|2dBA ABd|:efe edB|ded dBd|efe edB|dBA A3|efe edB|ded def|g
fg ege|1dBA A2 d|2dBA AGF||
